public/transfer.svg

<svg width="76" height="74" viewBox="0 0 76 74" fill="none" xmlns="http://www.w3.org/2000/svg">
<g clip-path="url(#clip0_9_112964)">
<path fill-rule="evenodd" clip-rule="evenodd" d="M45.5678 33.5101C45.5546 33.7478 45.4857 33.9791 45.3668 34.1853C45.2478 34.3915 45.082 34.5668 44.8828 34.6971L56.6108 41.4711C56.8092 41.3401 56.9745 41.1646 57.0932 40.9585C57.2119 40.7524 57.281 40.5215 57.2948 40.2841V33.3521L45.5678 26.5781V33.5101ZM57.1818 53.8531L45.4548 47.0792C45.5224 47.1928 45.5612 47.3211 45.5678 47.4531V54.4102L57.2948 61.1841V54.2271C57.2959 54.0939 57.2564 53.9635 57.1818 53.8531Z" fill="#035BE8"/>
<path fill-rule="evenodd" clip-rule="evenodd" d="M45.8122 34.5674L56.5402 40.7614C56.6456 40.6045 56.7083 40.4229 56.7222 40.2344V33.6864L46.1372 27.5864V33.5634C46.107 33.9201 45.9958 34.2652 45.8122 34.5724V34.5674ZM56.6122 42.0514C56.507 42.0518 56.4035 42.0246 56.3122 41.9724L44.5852 35.1974C44.502 35.1459 44.4317 35.0761 44.3797 34.9932C44.3277 34.9104 44.2953 34.8167 44.2852 34.7194C44.2844 34.6211 44.3078 34.524 44.3533 34.4368C44.3988 34.3496 44.465 34.275 44.5462 34.2194C44.6715 34.14 44.7756 34.0311 44.8493 33.9023C44.923 33.7736 44.9642 33.6287 44.9692 33.4804V26.5734C44.9712 26.4711 44.9999 26.3712 45.0526 26.2834C45.1052 26.1957 45.1799 26.1233 45.2692 26.0734C45.3558 26.0228 45.4544 25.9961 45.5547 25.9961C45.655 25.9961 45.7535 26.0228 45.8402 26.0734L57.5822 32.8474C57.6693 32.8982 57.7413 32.9712 57.7907 33.0591C57.8401 33.147 57.8651 33.2466 57.8632 33.3474V40.2794C57.853 40.6111 57.7631 40.9355 57.601 41.2252C57.439 41.5148 57.2096 41.7612 56.9322 41.9434C56.8358 42.0074 56.7229 42.0421 56.6072 42.0434L56.6122 42.0514ZM46.1372 54.0714L56.7222 60.1714V54.2484L46.1372 48.1384V54.0714ZM57.2932 61.7564C57.1881 61.7569 57.0847 61.73 56.9932 61.6784L45.2662 54.9034C45.1759 54.8546 45.1005 54.7825 45.0477 54.6945C44.9949 54.6066 44.9668 54.506 44.9662 54.4034V47.4464C44.8919 47.3329 44.8582 47.1974 44.8707 47.0623C44.8833 46.9272 44.9412 46.8003 45.0352 46.7024C45.1169 46.6052 45.2295 46.539 45.3541 46.5148C45.4788 46.4906 45.608 46.5099 45.7202 46.5694L57.4472 53.3434C57.5295 53.3865 57.5986 53.4512 57.6472 53.5304C57.7839 53.7067 57.8585 53.9233 57.8592 54.1464V61.1764C57.8618 61.2773 57.8372 61.3772 57.7877 61.4652C57.7382 61.5532 57.6658 61.6262 57.5782 61.6764C57.4922 61.7279 57.3944 61.7564 57.2942 61.7594L57.2932 61.7564Z" fill="#035BE8"/>
<path fill-rule="evenodd" clip-rule="evenodd" d="M75.1983 36.9362L63.4703 30.1621L45.5703 26.5781L57.2973 33.3521L75.1983 36.9362Z" fill="#035BE8"/>
<path fill-rule="evenodd" clip-rule="evenodd" d="M57.5068 32.8008L71.8638 35.6758L63.2578 30.7078L48.9008 27.8378L57.5068 32.8008ZM75.1968 37.5118C75.1589 37.5111 75.1212 37.5077 75.0838 37.5018L57.1838 33.9178C57.1202 33.9059 57.0588 33.8843 57.0018 33.8538L45.2748 27.0788C45.156 27.0113 45.0649 26.9042 45.0171 26.7762C44.9694 26.6482 44.9682 26.5076 45.0138 26.3788C45.066 26.2499 45.1613 26.1431 45.2835 26.0767C45.4057 26.0103 45.5472 25.9884 45.6838 26.0148L63.5838 29.5988C63.6409 29.6112 63.6956 29.6328 63.7458 29.6628L75.4878 36.4378C75.597 36.5021 75.6821 36.6004 75.7301 36.7177C75.778 36.8351 75.7862 36.9648 75.7533 37.0872C75.7204 37.2096 75.6482 37.3178 75.5478 37.3952C75.4475 37.4727 75.3245 37.515 75.1978 37.5158L75.1968 37.5118Z" fill="#035BE8"/>
<path fill-rule="evenodd" clip-rule="evenodd" d="M56.6113 41.4703L44.8833 34.6953L13.0153 53.0953C12.2061 53.6026 11.5372 54.3051 11.0703 55.1383L22.7973 61.9133C23.2618 61.0787 23.9307 60.3757 24.7413 59.8703L56.6113 41.4703Z" fill="#035BE8"/>
<path fill-rule="evenodd" clip-rule="evenodd" d="M11.8892 54.9429L22.6222 61.1429C23.0906 60.432 23.7087 59.832 24.4332 59.3849L55.4502 41.4739L44.8842 35.3739L13.2962 53.6049C12.7375 53.9492 12.2574 54.4071 11.8872 54.9489L11.8892 54.9429ZM22.7992 62.4949C22.7019 62.4942 22.6065 62.4673 22.5232 62.4169L10.7812 55.6419C10.7149 55.6022 10.6571 55.5499 10.6111 55.4878C10.5651 55.4256 10.5319 55.3551 10.5133 55.2801C10.4947 55.205 10.4911 55.1271 10.5028 55.0507C10.5145 54.9743 10.5411 54.901 10.5812 54.8349C11.0934 53.929 11.8225 53.1644 12.7032 52.6099L44.5902 34.2009C44.6764 34.1495 44.7747 34.122 44.875 34.1211C44.9754 34.1202 45.0741 34.146 45.1612 34.1959L56.9032 40.9709C56.9916 41.0211 57.0651 41.0938 57.1162 41.1817C57.1673 41.2695 57.1943 41.3693 57.1943 41.4709C57.1943 41.5725 57.1673 41.6724 57.1162 41.7602C57.0651 41.848 56.9916 41.9207 56.9032 41.9709L25.0402 60.3729C24.3085 60.8229 23.7102 61.4602 23.3072 62.2189C23.2526 62.304 23.1775 62.3739 23.0886 62.4221C22.9998 62.4704 22.9003 62.4954 22.7992 62.4949Z" fill="#035BE8"/>
<path fill-rule="evenodd" clip-rule="evenodd" d="M22.7983 61.9117L11.0712 55.1367V55.1417C10.58 55.9594 10.3048 56.8885 10.2713 57.8418V63.8728C10.249 64.1762 10.2929 64.4807 10.4 64.7654C10.507 65.0501 10.6746 65.3082 10.8912 65.5217L22.6332 72.2968C22.4122 72.0857 22.2402 71.8286 22.1296 71.5436C22.019 71.2586 21.9725 70.9528 21.9933 70.6478V64.6168C22.0384 63.6655 22.3129 62.7391 22.7933 61.9167L22.7983 61.9117Z" fill="#035BE8"/>
<path fill-rule="evenodd" clip-rule="evenodd" d="M11.3166 55.9468C11.0197 56.5446 10.8582 57.2005 10.8436 57.8678V63.8738C10.8208 64.1011 10.8502 64.3306 10.9295 64.5448C11.0089 64.759 11.1362 64.9522 11.3016 65.1098L21.4436 70.9488C21.4272 70.8594 21.4205 70.7686 21.4236 70.6778V64.6178C21.4426 63.7556 21.6562 62.9088 22.0486 62.1408L11.3156 55.9468H11.3166ZM22.6346 72.8778C22.529 72.8824 22.4246 72.8553 22.3346 72.7998L10.6066 66.0258C10.3057 65.7617 10.0665 65.4348 9.90581 65.0681C9.74511 64.7015 9.66686 64.304 9.67659 63.9038V57.8428C9.72097 56.7944 10.0236 55.7731 10.5576 54.8698C10.5921 54.8007 10.6405 54.7397 10.6999 54.6905C10.7593 54.6412 10.8284 54.6048 10.9026 54.5838C10.9791 54.5629 11.0589 54.5573 11.1375 54.5674C11.2161 54.5775 11.292 54.6033 11.3606 54.6428L23.0886 61.4127C23.2093 61.4829 23.3006 61.5943 23.3457 61.7263C23.3909 61.8584 23.387 62.0024 23.3346 62.1317V62.1367C22.8699 62.8924 22.6104 63.7562 22.5816 64.6428V70.6488C22.5581 70.8743 22.5852 71.1022 22.661 71.3158C22.7368 71.5295 22.8593 71.7235 23.0196 71.8838C23.124 71.9796 23.189 72.1109 23.2017 72.252C23.2145 72.3931 23.1742 72.5338 23.0886 72.6468C23.0359 72.7165 22.9681 72.7734 22.8904 72.8134C22.8127 72.8534 22.727 72.8755 22.6396 72.8778H22.6346Z" fill="#035BE8"/>
<path fill-rule="evenodd" clip-rule="evenodd" d="M51.0366 0.94803L19.1725 19.348C18.9265 19.448 18.7936 19.496 18.6016 19.328L30.3286 26.102C30.5406 26.269 30.6676 26.225 30.8996 26.122L62.7635 7.72202C63.0642 7.49342 63.4285 7.36396 63.806 7.35159C64.1835 7.33923 64.5556 7.44455 64.8705 7.65299L52.9706 0.75998C52.6601 0.618905 52.3179 0.562064 51.9784 0.595063C51.6389 0.628062 51.3141 0.749789 51.0366 0.94803Z" fill="#EFF3FA"/>
<path fill-rule="evenodd" clip-rule="evenodd" d="M20.0543 19.5044L30.6193 25.6045L62.4733 7.22545C62.5673 7.18145 62.6503 7.13145 62.7483 7.09245L52.6703 1.26347C52.2963 1.08147 51.9703 1.12149 51.3163 1.46349L20.0533 19.5125L20.0543 19.5044ZM30.5903 26.7905C30.3596 26.7903 30.1375 26.7024 29.9693 26.5445L18.5163 19.9524C18.4088 19.9072 18.3079 19.8477 18.2163 19.7755C18.105 19.6819 18.0333 19.5494 18.0159 19.405C17.9984 19.2606 18.0365 19.1149 18.1223 18.9975C18.2007 18.8778 18.3222 18.793 18.4616 18.7608C18.6009 18.7286 18.7473 18.7513 18.8703 18.8244H18.8853L50.7393 0.44548C50.7393 0.44548 50.7543 0.445465 50.7543 0.430465C51.1123 0.193728 51.5243 0.0512447 51.9521 0.0162807C52.3799 -0.0186833 52.8096 0.0549931 53.2013 0.230453L65.1603 7.14848C65.2798 7.23065 65.364 7.3547 65.3963 7.49608C65.4285 7.63746 65.4065 7.78585 65.3345 7.91173C65.2625 8.0376 65.1458 8.13179 65.0076 8.17564C64.8694 8.2195 64.7197 8.20982 64.5883 8.14848H64.5683V8.14348C63.9973 7.81448 63.7363 7.85846 63.0173 8.22746L31.1763 26.6235C30.9961 26.7228 30.7958 26.7799 30.5903 26.7905Z" fill="#035BE8"/>
<path fill-rule="evenodd" clip-rule="evenodd" d="M30.213 18.7896L18.4859 12.0195L0.585938 36.2665L12.3129 43.0415L30.213 18.7896Z" fill="#EFF3FA"/>
<path fill-rule="evenodd" clip-rule="evenodd" d="M1.43462 36.0943L12.1476 42.2833L29.3646 18.9713L18.6316 12.7783L1.4316 36.0953L1.43462 36.0943ZM12.3096 43.6223C12.2073 43.6222 12.1069 43.595 12.0186 43.5433L0.291612 36.7693C0.220331 36.7301 0.158369 36.6759 0.110032 36.6105C0.0616958 36.5451 0.0281337 36.47 0.0116133 36.3903C-0.00442899 36.3104 -0.00385271 36.228 0.0133528 36.1484C0.0305583 36.0687 0.0639992 35.9935 0.111589 35.9273L18.0116 11.6753C18.0963 11.5617 18.2195 11.4829 18.3582 11.4538C18.4969 11.4247 18.6414 11.4473 18.7646 11.5173L30.5066 18.2923C30.5764 18.3347 30.6371 18.3904 30.6854 18.4563C30.7336 18.5222 30.7683 18.597 30.7876 18.6763C30.7999 18.7575 30.7957 18.8404 30.7753 18.9199C30.7548 18.9995 30.7185 19.0741 30.6686 19.1393L12.7686 43.3863C12.7166 43.4592 12.6479 43.5187 12.5682 43.5597C12.4885 43.6008 12.3992 43.6223 12.3096 43.6223Z" fill="#035BE8"/>
<path fill-rule="evenodd" clip-rule="evenodd" d="M30.9034 38.4836L62.7674 20.0836C63.5759 19.5754 64.2445 18.8732 64.7124 18.0406V18.0356C65.2022 17.2174 65.4773 16.2886 65.5124 15.3356V9.30462C65.5124 7.56162 64.2724 6.85267 62.7704 7.72467L30.9064 26.1246C30.5324 26.3416 30.2164 26.1646 30.2164 25.7306V18.7936L12.3164 43.0457L30.2164 46.6246V39.6677C30.2307 39.4304 30.3003 39.1998 30.4196 38.9942C30.5389 38.7886 30.7046 38.6138 30.9034 38.4836Z" fill="white"/>
<path fill-rule="evenodd" clip-rule="evenodd" d="M13.3261 42.6513L29.6261 45.9104V39.6623C29.6404 39.3232 29.7372 38.9926 29.9079 38.6992C30.0787 38.4058 30.3183 38.1584 30.6061 37.9783L62.4751 19.5783C63.1859 19.1098 63.7774 18.4817 64.2022 17.7439C64.6271 17.0062 64.8736 16.1793 64.9221 15.3293V9.29836C64.9923 9.0603 64.9804 8.80554 64.8885 8.57503C64.7965 8.34452 64.6297 8.15159 64.4149 8.02724C64.2001 7.90289 63.9498 7.85435 63.7041 7.88936C63.4584 7.92438 63.2316 8.04096 63.0601 8.22035L31.1771 26.6203C31.0227 26.7286 30.8406 26.7904 30.6522 26.7985C30.4638 26.8066 30.2771 26.7605 30.114 26.6659C29.9509 26.5713 29.8183 26.432 29.7319 26.2644C29.6454 26.0969 29.6087 25.9081 29.6261 25.7204V20.5463L13.3261 42.6463V42.6513ZM30.2131 47.2003C30.1749 47.1998 30.137 47.1948 30.1001 47.1853L12.2001 43.6113C12.1044 43.593 12.0152 43.5502 11.9411 43.4871C11.867 43.424 11.8104 43.3428 11.7771 43.2514C11.7431 43.1611 11.7312 43.0639 11.7423 42.9681C11.7535 42.8723 11.7873 42.7805 11.8411 42.7003L29.7401 18.4453C29.8151 18.3481 29.918 18.2762 30.0352 18.2394C30.1523 18.2026 30.2779 18.2025 30.3951 18.2393C30.5086 18.2793 30.6072 18.353 30.6776 18.4506C30.748 18.5482 30.7869 18.665 30.7891 18.7854V25.5053L62.4751 7.21535C62.8267 6.93474 63.2547 6.7666 63.7033 6.73287C64.1519 6.69913 64.6002 6.80133 64.9898 7.0262C65.3794 7.25108 65.6923 7.58818 65.8875 7.99349C66.0827 8.39879 66.1512 8.85353 66.0841 9.29836V15.3293C66.0277 16.38 65.7246 17.4027 65.1994 18.3144C64.6742 19.2262 63.9416 20.0014 63.0611 20.5773L31.1781 38.9773C31.0681 39.0569 30.9765 39.1592 30.9094 39.2772C30.8423 39.3952 30.8013 39.5261 30.7891 39.6613V46.6183C30.7906 46.7048 30.7718 46.7904 30.7341 46.8682C30.6964 46.9461 30.6409 47.0139 30.5721 47.0663C30.4719 47.1519 30.3448 47.1994 30.2131 47.2003Z" fill="#035BE8"/>
<path fill-rule="evenodd" clip-rule="evenodd" d="M24.7402 72.2326L56.6092 53.8326C56.9832 53.6116 57.2932 53.7886 57.2932 54.2266V61.1836L75.1932 36.9356L57.2932 33.3516V40.2836C57.28 40.5212 57.2113 40.7523 57.0925 40.9585C56.9737 41.1647 56.8081 41.3401 56.6092 41.4706L24.7402 59.8706C23.934 60.3813 23.2662 61.083 22.7962 61.9136C22.3066 62.7319 22.0314 63.6606 21.9962 64.6136V70.6446C21.9289 70.9876 21.9706 71.3429 22.1153 71.6611C22.26 71.9792 22.5005 72.2442 22.8032 72.4188C23.1059 72.5935 23.4557 72.6691 23.8035 72.6352C24.1514 72.6013 24.4799 72.4595 24.7432 72.2296L24.7402 72.2326Z" fill="#EFF3FA"/>
<path fill-rule="evenodd" clip-rule="evenodd" d="M57.8664 34.0625V40.2855C57.855 40.6242 57.7611 40.9551 57.593 41.2494C57.4248 41.5437 57.1875 41.7926 56.9015 41.9745L25.0375 60.3745C24.3139 60.828 23.7175 61.4581 23.3045 62.2055C22.8672 62.9372 22.6204 63.7668 22.5865 64.6185V70.6495C22.5558 70.8868 22.5863 71.1281 22.675 71.3504C22.7638 71.5726 22.9078 71.7685 23.0935 71.9195C23.316 72.0075 23.5575 72.0366 23.7945 72.0038C24.0316 71.971 24.2561 71.8776 24.4464 71.7325L56.3185 53.3345C56.4742 53.2321 56.6545 53.1735 56.8406 53.1647C57.0267 53.1559 57.2118 53.1973 57.3764 53.2845C57.539 53.3802 57.6714 53.5196 57.7585 53.6868C57.8457 53.8541 57.8841 54.0425 57.8695 54.2305V59.4245L74.1855 37.3245L57.8695 34.0645L57.8664 34.0625ZM23.5154 73.1845C23.1664 73.1881 22.8228 73.098 22.5205 72.9235C22.1476 72.6801 21.8482 72.3396 21.6544 71.9388C21.4605 71.5379 21.3797 71.0919 21.4204 70.6485V64.6175C21.4769 63.5668 21.7799 62.5441 22.3051 61.6324C22.8303 60.7206 23.5629 59.9454 24.4435 59.3695L56.3125 40.9695C56.4276 40.8935 56.5241 40.7926 56.5949 40.6741C56.6658 40.5557 56.709 40.4229 56.7215 40.2855V33.3535C56.7185 33.2673 56.7362 33.1817 56.773 33.1037C56.8099 33.0258 56.8649 32.9578 56.9334 32.9055C56.9991 32.8528 57.0754 32.8151 57.157 32.7947C57.2387 32.7743 57.3238 32.7719 57.4065 32.7875L75.3064 36.3665C75.4017 36.3859 75.4906 36.4291 75.5647 36.4921C75.6387 36.5552 75.6956 36.6359 75.7301 36.7269C75.7645 36.8178 75.7754 36.916 75.7616 37.0123C75.7479 37.1086 75.71 37.1998 75.6515 37.2775L57.7644 61.5245C57.6903 61.6228 57.5874 61.6954 57.4699 61.7324C57.3525 61.7693 57.2265 61.7686 57.1095 61.7305C56.9949 61.6928 56.8954 61.6195 56.8254 61.5213C56.7554 61.423 56.7187 61.305 56.7204 61.1845V54.4445L25.0335 72.7345C24.5757 73.0125 24.0538 73.1672 23.5185 73.1835L23.5154 73.1845Z" fill="#035BE8"/>
</g>
<defs>
<clipPath id="clip0_9_112964">
<rect width="75.771" height="73.184" fill="white"/>
</clipPath>
</defs>
</svg>

<svg xmlns="http://www.w3.org/2000/svg" width="76" height="74" fill="none" viewBox="0 0 76 74"><g fill-rule="evenodd" clip-path="url(#a)" clip-rule="evenodd"><path fill="#035be8" d="M45.568 33.51a1.52 1.52 0 0 1-.685 1.187l11.728 6.774a1.53 1.53 0 0 0 .684-1.187v-6.932l-11.727-6.774zm11.614 20.343L45.455 47.08a.8.8 0 0 1 .113.374v6.957l11.727 6.774v-6.957a.66.66 0 0 0-.113-.374"/><path fill="#035be8" d="m45.812 34.567 10.728 6.194c.106-.157.168-.338.182-.527v-6.548l-10.585-6.1v5.977c-.03.357-.141.702-.325 1.01zm10.8 7.484a.6.6 0 0 1-.3-.079l-11.727-6.775a.64.64 0 0 1-.3-.478.6.6 0 0 1 .261-.5.91.91 0 0 0 .423-.739v-6.907a.59.59 0 0 1 .3-.5.57.57 0 0 1 .571 0l11.742 6.774a.57.57 0 0 1 .281.5v6.932a2.07 2.07 0 0 1-.93 1.664.6.6 0 0 1-.326.1zm-10.475 12.02 10.585 6.1v-5.923l-10.585-6.11zm11.156 7.685a.6.6 0 0 1-.3-.078l-11.727-6.775a.57.57 0 0 1-.3-.5v-6.957a.6.6 0 0 1 .07-.744.555.555 0 0 1 .684-.133l11.727 6.774a.5.5 0 0 1 .2.187c.137.177.212.393.212.616v7.03a.56.56 0 0 1-.28.5.6.6 0 0 1-.285.083z"/><path fill="#035be8" d="M75.198 36.936 63.47 30.162l-17.9-3.584 11.727 6.774z"/><path fill="#035be8" d="m57.507 32.8 14.357 2.876-8.606-4.968-14.357-2.87zm17.69 4.712a1 1 0 0 1-.113-.01l-17.9-3.584a.6.6 0 0 1-.182-.064l-11.727-6.775a.58.58 0 0 1-.261-.7.6.6 0 0 1 .67-.364l17.9 3.584a.5.5 0 0 1 .162.064l11.742 6.775a.58.58 0 0 1-.29 1.078zM56.611 41.47l-11.728-6.775-31.868 18.4a5.7 5.7 0 0 0-1.945 2.043l11.727 6.775a5.64 5.64 0 0 1 1.944-2.043z"/><path fill="#035be8" d="m11.89 54.943 10.732 6.2a5.84 5.84 0 0 1 1.811-1.758L55.45 41.474l-10.566-6.1-31.588 18.23a4.7 4.7 0 0 0-1.409 1.345zm10.91 7.552a.54.54 0 0 1-.277-.078l-11.742-6.775a.587.587 0 0 1-.2-.807 6.3 6.3 0 0 1 2.122-2.225L44.59 34.2a.57.57 0 0 1 .571-.004l11.742 6.775a.574.574 0 0 1 0 1L25.04 60.373a4.8 4.8 0 0 0-1.733 1.846.6.6 0 0 1-.508.276"/><path fill="#035be8" d="m22.798 61.912-11.727-6.775v.005a5.6 5.6 0 0 0-.8 2.7v6.03a2.1 2.1 0 0 0 .62 1.65l11.742 6.775a2.09 2.09 0 0 1-.64-1.65v-6.03c.045-.952.32-1.878.8-2.7z"/><path fill="#035be8" d="M11.317 55.947a4.54 4.54 0 0 0-.473 1.92v6.007a1.5 1.5 0 0 0 .458 1.236l10.142 5.839a1.3 1.3 0 0 1-.02-.271v-6.06a5.7 5.7 0 0 1 .625-2.477l-10.733-6.194m11.318 16.93a.53.53 0 0 1-.3-.077l-11.728-6.774a2.73 2.73 0 0 1-.93-2.122v-6.061a6.4 6.4 0 0 1 .88-2.973.55.55 0 0 1 .58-.303q.12.015.224.076l11.728 6.77a.58.58 0 0 1 .246.719v.005a5.1 5.1 0 0 0-.753 2.506v6.006a1.52 1.52 0 0 0 .438 1.235.57.57 0 0 1-.13.93.6.6 0 0 1-.25.064z"/><path fill="#eff3fa" d="m51.037.948-31.864 18.4c-.246.1-.38.148-.571-.02l11.727 6.774c.212.167.339.123.57.02l31.865-18.4a1.82 1.82 0 0 1 2.107-.069L52.97.76a1.94 1.94 0 0 0-1.934.188"/><path fill="#035be8" d="m20.054 19.504 10.565 6.1L62.473 7.226c.094-.044.177-.094.275-.133L52.67 1.263c-.374-.182-.7-.142-1.354.2l-31.263 18.05zm10.536 7.287a.9.9 0 0 1-.62-.247l-11.454-6.592a1.3 1.3 0 0 1-.3-.177.574.574 0 0 1-.094-.777.555.555 0 0 1 .748-.174h.015L50.74.445s.015 0 .015-.015a2.55 2.55 0 0 1 2.447-.2l11.96 6.918a.578.578 0 0 1-.573 1h-.02v-.005c-.57-.329-.832-.285-1.55.084L31.175 26.624c-.18.099-.38.156-.586.167"/><path fill="#eff3fa" d="m30.213 18.79-11.727-6.77-17.9 24.247 11.727 6.774z"/><path fill="#035be8" d="m1.435 36.094 10.713 6.19L29.365 18.97l-10.733-6.193-17.2 23.317zm10.875 7.528a.6.6 0 0 1-.291-.079L.292 36.77a.56.56 0 0 1-.279-.62.6.6 0 0 1 .099-.222l17.9-24.252a.58.58 0 0 1 .753-.158l11.742 6.775a.62.62 0 0 1 .28.384.61.61 0 0 1-.118.463l-17.9 24.247a.56.56 0 0 1-.46.236"/><path fill="#fff" d="m30.903 38.484 31.864-18.4a5.7 5.7 0 0 0 1.945-2.043v-.005c.49-.819.765-1.747.8-2.7V9.305c0-1.743-1.24-2.452-2.742-1.58l-31.864 18.4c-.374.217-.69.04-.69-.394v-6.937l-17.9 24.252 17.9 3.579v-6.957a1.53 1.53 0 0 1 .687-1.184"/><path fill="#035be8" d="m13.326 42.651 16.3 3.26v-6.249a2.09 2.09 0 0 1 .98-1.684l31.87-18.4a5.46 5.46 0 0 0 2.446-4.249V9.3A1.107 1.107 0 0 0 63.06 8.22l-31.883 18.4a.988.988 0 0 1-1.55-.9v-5.174l-16.3 22.1zm16.887 4.55a.5.5 0 0 1-.113-.016l-17.9-3.574a.56.56 0 0 1-.423-.36.6.6 0 0 1 .064-.55l17.9-24.256a.6.6 0 0 1 .654-.206.59.59 0 0 1 .394.546v6.72l31.686-18.29a2.238 2.238 0 0 1 3.61 2.083v6.031a6.7 6.7 0 0 1-3.024 5.248l-31.883 18.4a.95.95 0 0 0-.389.684v6.957a.55.55 0 0 1-.217.448.56.56 0 0 1-.359.134"/><path fill="#eff3fa" d="m24.74 72.233 31.87-18.4c.373-.221.683-.044.683.394v6.957l17.9-24.248-17.9-3.584v6.932a1.52 1.52 0 0 1-.684 1.187L24.74 59.87a5.8 5.8 0 0 0-1.944 2.043 5.67 5.67 0 0 0-.8 2.7v6.03a1.676 1.676 0 0 0 2.747 1.586z"/><path fill="#035be8" d="M57.866 34.063v6.222a2.09 2.09 0 0 1-.965 1.69l-31.864 18.4a5.04 5.04 0 0 0-1.732 1.83 5.1 5.1 0 0 0-.718 2.413v6.032a1.4 1.4 0 0 0 .506 1.27 1.39 1.39 0 0 0 1.353-.187L56.32 53.334a1.04 1.04 0 0 1 1.057-.05 1.01 1.01 0 0 1 .494.947v5.194l16.316-22.1-16.317-3.26zm-34.35 39.122a1.95 1.95 0 0 1-.995-.261 2.45 2.45 0 0 1-1.1-2.276v-6.03a6.7 6.7 0 0 1 3.023-5.248l31.869-18.4a.92.92 0 0 0 .408-.684v-6.933a.54.54 0 0 1 .212-.447.58.58 0 0 1 .474-.118l17.9 3.579a.576.576 0 0 1 .344.91L57.765 61.526a.59.59 0 0 1-.655.206.57.57 0 0 1-.389-.547v-6.74l-31.686 18.29a3.1 3.1 0 0 1-1.515.45z"/></g><defs><clipPath id="a"><path fill="#fff" d="M0 0h75.771v73.184H0z"/></clipPath></defs></svg>
